X:1
T:Still Whiter Than Snow
T:S. J. Perry
T:Still Whiter Than Snow
T:Public Domain
T:Public Domain
T:Public Domain
C:S. J. Perry
Z:Public Domain
%%score ( 1 2 ) ( 3 4 )
L:1/8
M:6/8
K:G
V:1 treble 
V:2 treble 
V:3 bass 
V:4 bass 
V:1
 B>BB BAG | ccB A3 | A>AA AGF | G2 A B3 | B>BB BAG | c2 B A3 | A>AA AGA | BBA G3 || %8
w: 1.~What can be whit- er than|beau- ti- ful snow,|Com- ing from Heav- en to|earth be- low,|Pure and so white as it|fall- eth light|O- ver this broad world of|sin and of woe?|
w: 2.~Je- sus has died, and now|all men may know|That His rich blood for the|world did flow;|Saved we may be, and from|sin set free,|Washed and made whit- er than|beau- ti- ful snow.|
w: 3.~Beau- ti- ful souls of His|saints here be- low,|What but His blood could have|made them so?|All who be- lieve shall His|grace re- ceive,|And be made pur- er than|Heav- en- born snow.|
w: 4.~Come to this Sav- ior! He|sure- ly doth know|All of your sor- row and|sin and woe,|And when you sigh He will|hear your cry,|Wash you more white than the|beau- ti- ful snow.|
"^Refrain" [Gd]>[Gd][Gd] [Gd][Gc][GB] | [Fc]3 [Fc]2 z | [Fc]>[Fc][Fc] [Ac][GB][FA] | %11
w: |||
w: Yes, there is some- thing still|whit- er;|Heark- en ye wea- ry, and|
w: |||
w: |||
 [GB]3- [GB]2 z | [GB]2 [GB] [=FB][Fc][Fd] | [Ee]2 [Ge] [Ge]3 | [Fd]>[Ac][GB] [Fc][FB][FA] | %15
w: ||||
w: know! *|Tho’ your sins be as|scar- let red,|They shall be whit- er than|
w: ||||
w: ||||
 G2 E [DG]2 z |] %16
w: |
w: snow. * *|
w: |
w: |
V:2
 x6 | x6 | x6 | x6 | x6 | x6 | x6 | x6 || x6 | x6 | x6 | x6 | x6 | x6 | x6 | G3- x3 |] %16
V:3
 D>DD DCB, | EED [D,,C]3 | C>CC CB,A, | B,2 C [G,,D]3 | D>DD DCB, | E2 D [D,,C]3 | C>CC CB,C | %7
w: ~ ~ ~ ~ ~ ~|~ ~ ~ ~|~ ~ ~ ~ ~ ~|~ ~ ~|~ ~ ~ ~ ~ ~|~ ~ ~|~ ~ ~ ~ ~ ~|
 DDC [G,,B,]3 || [G,B,]>[G,B,][G,B,] [G,B,][G,E][G,D] | [D,D][D,A,][D,A,] [D,A,]2 z | %10
w: er than snow; Heark-|en, ye wea- ry of earth,|and know * *|
 [D,A,]>[D,A,][D,A,] [D,D][D,D][D,D] | [G,D]2 [G,D] [G,D]2 z | [G,D]2 [G,D] [G,D][G,C][G,B,] | %13
w: |||
 [C,C]2 [C,C] [C,C]3 | [D,B,]>[D,D][D,D] [D,E][D,D][D,C] | B,2 C [G,,B,]2 z |] %16
w: |||
V:4
 G,,3- G,,3 | G,,3 x3 | D,,3- D,,3 | G,,3- x3 | G,,3- G,,3 | G,,3 x3 | D,,3- D,,3 | x6 || x6 | x6 | %10
w: ~ *|~|~ *|~||~|whit- *||||
 x6 | x6 | x6 | x6 | x6 | G,,3- x3 |] %16
w: ||||||

